assets/dude/Did–Johnny.svg

<svg width="227" height="99" viewBox="0 0 227 99" fill="none" xmlns="http://www.w3.org/2000/svg">
<path d="M42.4404 0.719971C33.4804 0.719971 25.9204 6.59997 23.2604 14.58C22.5604 16.54 22.5604 16.96 22.2804 16.96C22.0004 16.96 22.0004 16.54 21.3004 14.58C18.6404 6.59997 11.0804 0.719971 2.12035 0.719971C1.42035 0.719971 0.860352 1.27997 0.860352 1.97997V34.74C0.860352 35.44 1.42035 36 2.12035 36H15.9804C16.6804 36 17.2404 36.56 17.2404 37.26V62.46C17.2404 63.16 16.6804 63.72 15.9804 63.72H2.12035C1.42035 63.72 0.860352 64.28 0.860352 64.98V97.74C0.860352 98.44 1.42035 99 2.12035 99C11.0804 99 18.6404 93.26 21.3004 85.14C22.0004 83.18 22.0004 82.76 22.2804 82.76C22.5604 82.76 22.5604 83.18 23.2604 85.14C25.9204 93.26 33.4804 99 42.4404 99H54.4804C71.1404 99 84.7204 85.42 84.7204 68.76V30.96C84.7204 14.3 71.1404 0.719971 54.4804 0.719971H42.4404ZM74.6404 54.9C74.6404 59.8 70.7204 63.72 65.8204 63.72H28.5804C27.8804 63.72 27.3204 63.16 27.3204 62.46V37.26C27.3204 36.56 27.8804 36 28.5804 36H65.8204C70.7204 36 74.6404 39.92 74.6404 44.82V54.9Z" fill="#FF1C31"/>
<path d="M119.772 36H133.632C134.332 36 134.892 35.44 134.892 34.74V1.97997C134.892 1.27997 134.332 0.719971 133.632 0.719971C124.672 0.719971 117.112 6.59997 114.452 14.58C113.752 16.54 113.752 16.96 113.472 16.96C113.192 16.96 113.192 16.54 112.492 14.58C109.832 6.59997 102.272 0.719971 93.3118 0.719971C92.6118 0.719971 92.0518 1.27997 92.0518 1.97997V34.74C92.0518 35.44 92.6118 36 93.3118 36H107.172C107.872 36 108.432 36.56 108.432 37.26V62.46C108.432 63.16 107.872 63.72 107.172 63.72H93.3118C92.6118 63.72 92.0518 64.28 92.0518 64.98V97.74C92.0518 98.44 92.6118 99 93.3118 99C102.272 99 109.832 93.26 112.492 85.14C113.192 83.18 113.192 82.76 113.472 82.76C113.752 82.76 113.752 83.18 114.452 85.14C117.112 93.26 124.672 99 133.632 99C134.332 99 134.892 98.44 134.892 97.74V64.98C134.892 64.28 134.332 63.72 133.632 63.72H119.772C119.072 63.72 118.512 63.16 118.512 62.46V37.26C118.512 36.56 119.072 36 119.772 36Z" fill="#FF1C31"/>
<path d="M183.808 0.719971C174.848 0.719971 167.288 6.59997 164.628 14.58C163.928 16.54 163.928 16.96 163.648 16.96C163.368 16.96 163.368 16.54 162.668 14.58C160.008 6.59997 152.448 0.719971 143.488 0.719971C142.788 0.719971 142.228 1.27997 142.228 1.97997V34.74C142.228 35.44 142.788 36 143.488 36H157.348C158.048 36 158.608 36.56 158.608 37.26V62.46C158.608 63.16 158.048 63.72 157.348 63.72H143.488C142.788 63.72 142.228 64.28 142.228 64.98V97.74C142.228 98.44 142.788 99 143.488 99C152.448 99 160.008 93.26 162.668 85.14C163.368 83.18 163.368 82.76 163.648 82.76C163.928 82.76 163.928 83.18 164.628 85.14C167.288 93.26 174.848 99 183.808 99H195.848C212.508 99 226.088 85.42 226.088 68.76V30.96C226.088 14.3 212.508 0.719971 195.848 0.719971H183.808ZM216.008 54.9C216.008 59.8 212.088 63.72 207.188 63.72H169.948C169.248 63.72 168.688 63.16 168.688 62.46V37.26C168.688 36.56 169.248 36 169.948 36H207.188C212.088 36 216.008 39.92 216.008 44.82V54.9Z" fill="#FF1C31"/>
</svg>

<svg xmlns="http://www.w3.org/2000/svg" fill="none" viewBox="0 0 227 99"><path fill="#FF1C31" d="M42.44.72c-8.96 0-16.52 5.88-19.18 13.86-.7 1.96-.7 2.38-.98 2.38s-.28-.42-.98-2.38C18.64 6.6 11.08.72 2.12.72c-.7 0-1.26.56-1.26 1.26v32.76c0 .7.56 1.26 1.26 1.26h13.86c.7 0 1.26.56 1.26 1.26v25.2c0 .7-.56 1.26-1.26 1.26H2.12c-.7 0-1.26.56-1.26 1.26v32.76c0 .7.56 1.26 1.26 1.26 8.96 0 16.52-5.74 19.18-13.86.7-1.96.7-2.38.98-2.38s.28.42.98 2.38A20.097 20.097 0 0 0 42.44 99h12.04c16.66 0 30.24-13.58 30.24-30.24v-37.8C84.72 14.3 71.14.72 54.48.72H42.44zm32.2 54.18c0 4.9-3.92 8.82-8.82 8.82H28.58c-.7 0-1.26-.56-1.26-1.26v-25.2c0-.7.56-1.26 1.26-1.26h37.24c4.9 0 8.82 3.92 8.82 8.82V54.9zM119.772 36h13.86c.7 0 1.26-.56 1.26-1.26V1.98c0-.7-.56-1.26-1.26-1.26-8.96 0-16.52 5.88-19.18 13.86-.7 1.96-.7 2.38-.98 2.38s-.28-.42-.98-2.38C109.832 6.6 102.272.72 93.312.72c-.7 0-1.26.56-1.26 1.26v32.76c0 .7.56 1.26 1.26 1.26h13.86c.7 0 1.26.56 1.26 1.26v25.2c0 .7-.56 1.26-1.26 1.26h-13.86c-.7 0-1.26.56-1.26 1.26v32.76c0 .7.56 1.26 1.26 1.26 8.96 0 16.52-5.74 19.18-13.86.7-1.96.7-2.38.98-2.38s.28.42.98 2.38A20.097 20.097 0 0 0 133.632 99c.7 0 1.26-.56 1.26-1.26V64.98c0-.7-.56-1.26-1.26-1.26h-13.86c-.7 0-1.26-.56-1.26-1.26v-25.2c0-.7.56-1.26 1.26-1.26zM183.808.72c-8.96 0-16.52 5.88-19.18 13.86-.7 1.96-.7 2.38-.98 2.38s-.28-.42-.98-2.38C160.008 6.6 152.448.72 143.488.72c-.7 0-1.26.56-1.26 1.26v32.76c0 .7.56 1.26 1.26 1.26h13.86c.7 0 1.26.56 1.26 1.26v25.2c0 .7-.56 1.26-1.26 1.26h-13.86c-.7 0-1.26.56-1.26 1.26v32.76c0 .7.56 1.26 1.26 1.26 8.96 0 16.52-5.74 19.18-13.86.7-1.96.7-2.38.98-2.38s.28.42.98 2.38A20.097 20.097 0 0 0 183.808 99h12.04c16.66 0 30.24-13.58 30.24-30.24v-37.8c0-16.66-13.58-30.24-30.24-30.24h-12.04zm32.2 54.18c0 4.9-3.92 8.82-8.82 8.82h-37.24c-.7 0-1.26-.56-1.26-1.26v-25.2c0-.7.56-1.26 1.26-1.26h37.24c4.9 0 8.82 3.92 8.82 8.82V54.9z"/></svg>
